X:166
T:Five Barred Gate, The
C:Joe Buchanan's Scottish Tome - Page 264.2
I:264 2
Z:Carl Allison
R:Jig
L:1/8
M:6/8
K:D
B | AFD DFA | ded cBA | BEE EFE | B/c/ BA Bcd |
AFD DFA | ded cBA | Bcd ecA |  d3 d2 :|
g | f2 d dcd | faa afd | cAA eAA | Bgf efg |
f2 d dcd | faa afd | Bcd ecA | d3 d2 :|

